X:1
T:Title
%%score { ( 1 3 ) | ( 2 4 ) }
L:1/8
M:4/4
K:Eb
V:1 treble nm="Grand Piano"
V:3 treble 
V:2 bass 
V:4 bass 
V:1
 z4 z2[Q:1/4=100] B2 | B3 E [B,EG]2 [A,DF]2 | [G,E]6 [B,DF]2 | [B,EG]3 [EGB] [EGB]2 [B,EG]2 | %4
[M:3/4] [B,DF]6 |[M:1/4] [B,DF]2 |[M:4/4] [B,EG]3 [B,FA] [B,GB]2 [GB]2 | [Ac]2 [GB]2 [Ge]2 [Ge]2 | %8
 d3 B d2 c2 |[M:3/4] B6 |[M:1/4] [B,AB]2 |[M:4/4] [Ge]3 [GB] [Bd][Ac][GB][FA] | G2 A2 B3 [GB] | %13
 [Ac]2 [GB]2 [GB]2 G2 | [DF]4- [DF][DA][DG][DF] | E3 F G2 [GB]2 | %16
[M:9/8] [Ac]2 [GB]- [GB] [Ge]2- [Ge] [Ec]2 |[M:4/4] [EB]3 [G,E] [B,EG]2 [A,DF]2 |[M:3/4] [G,E]6 |] %19
V:2
 z4 z2 [E,G,E]2 | [E,G,E]3 [E,G,] B,,2 B,,2 | E,6 B,,2 | E,3 E, E,2 E,2 |[M:3/4] B,,6 | %5
[M:1/4] B,,2 |[M:4/4] E,3 E, E,2 [E,E]2 | [E,E]2 [E,E]2 [E,B,]2 [E,B,]2 | %8
 [F,B,F]3 [F,B,D] [F,B,F]2 [F,=A,E]2 |[M:3/4] [B,D]6 |[M:1/4] F,2 | %11
[M:4/4] [E,B,]3 [E,E] [E,E][E,E][E,B,][E,B,] | [E,B,E]2 [F,B,D]2 [G,B,E]3 [E,E] | %13
 [E,E]2 [E,E]2 [E,B,]2 [B,E]2 | [B,,B,]4- [B,,B,][B,,F,][B,,G,][B,,A,] | %15
 [E,G,]3 [E,A,E] [E,B,E]2 [E,E]2 |[M:9/8] [E,E]2 [E,E]- [E,E] [E,B,]2- [E,B,] [A,,A,]2 | %17
[M:4/4] [B,,G,]3 B,, B,,2 B,,2 |[M:3/4] E,6 |] %19
V:3
 x8 | x8 | x8 | x8 |[M:3/4] x6 |[M:1/4] x2 |[M:4/4] x8 | x8 | x8 |[M:3/4] z2 A,2 z2 |[M:1/4] x2 | %11
[M:4/4] x8 | x8 | x8 | x8 | x8 |[M:9/8] x9 |[M:4/4] x8 |[M:3/4] x6 |] %19
V:4
 x8 | x8 | x8 | x8 |[M:3/4] x6 |[M:1/4] x2 |[M:4/4] x8 | x8 | x8 |[M:3/4] z2 z2 G,2 |[M:1/4] x2 | %11
[M:4/4] x8 | x8 | x8 | x8 | x8 |[M:9/8] x9 |[M:4/4] x8 |[M:3/4] x6 |] %19

